X: 37405
T: Sleepy Maggie
R: slide
M: 12/8
K: Dmajor
|:B|A2 A ABc d2 A FGF|A2 G ECE B2 A F2 G|
ABA ABc dcd F2 A|ABA GFE D3 D2:|
|:e|f2 d ABA f2 d A3|g2 e c2 e dcB A2 d|
f2 d ABA f/g/fd A2 A|Bcd efe d3 d2:|

